assets/icons/telegram.svg

<svg width="38" height="38" viewBox="0 0 38 38" fill="none" xmlns="http://www.w3.org/2000/svg">
<circle cx="19" cy="19" r="19" fill="#8A8A8A"/>
<g clip-path="url(#clip0_398_277)">
<path d="M15.0628 22.3861L14.765 26.5741C15.191 26.5741 15.3755 26.3911 15.5968 26.1713L17.594 24.2626L21.7325 27.2933C22.4915 27.7163 23.0263 27.4936 23.231 26.5951L25.9475 13.8661L25.9483 13.8653C26.189 12.7433 25.5425 12.3046 24.803 12.5798L8.83551 18.6931C7.74576 19.1161 7.76226 19.7236 8.65026 19.9988L12.7325 21.2686L22.2148 15.3353C22.661 15.0398 23.0668 15.2033 22.733 15.4988L15.0628 22.3861Z" fill="#0D0D0D"/>
</g>
<defs>
<clipPath id="clip0_398_277">
<rect width="18" height="18" fill="white" transform="translate(8 11)"/>
</clipPath>
</defs>
</svg>

<svg xmlns="http://www.w3.org/2000/svg" width="38" height="38" fill="none"><circle cx="19" cy="19" r="19" fill="#8A8A8A"/><g clip-path="url(#a)"><path fill="#0D0D0D" d="m15.063 22.386-.298 4.188c.426 0 .61-.183.832-.403l1.997-1.908 4.139 3.03c.758.423 1.293.2 1.498-.698l2.716-12.729h.001c.241-1.123-.405-1.561-1.145-1.286L8.836 18.693c-1.09.423-1.074 1.03-.186 1.306l4.082 1.27 9.483-5.934c.446-.295.852-.132.518.164l-7.67 6.887Z"/></g><defs><clipPath id="a"><path fill="#fff" d="M8 11h18v18H8z"/></clipPath></defs></svg>
